style/img/facebook-box-svgrepo-com.svg

<svg width="30" height="30" viewBox="0 0 30 30" fill="none" xmlns="http://www.w3.org/2000/svg">
<g clip-path="url(#clip0)">
<path d="M27.56 0.684082H2.383C1.065 0.684082 0 1.74808 0 3.06408V26.8771C0 28.1891 1.065 29.2561 2.383 29.2561H27.56C28.872 29.2561 29.94 28.1901 29.94 26.8771V3.06408C29.939 1.74808 28.871 0.684082 27.56 0.684082ZM20.125 9.16708C19.506 8.80508 19.015 8.51908 18.398 8.51908C17.794 8.51908 17.278 8.67008 17.014 8.92408C16.75 9.17608 16.619 9.66408 16.619 10.3851V11.4521H19.848L19.149 14.4201H16.619V24.2821H12.563V14.4201H10.67V11.4521H12.565V10.3191C12.565 9.12608 12.708 8.41208 12.99 7.82308C13.271 7.23608 13.816 6.58208 14.574 6.21208C15.331 5.84308 16.451 5.65708 17.61 5.65708C18.798 5.65708 19.726 6.05308 20.864 6.37208L20.125 9.16708Z" fill="#373737"/>
</g>
<defs>
<clipPath id="clip0">
<rect width="29.94" height="29.94" fill="white"/>
</clipPath>
</defs>
</svg>

<?xml version="1.0" encoding="iso-8859-1"?>
<!-- Generator: Adobe Illustrator 18.1.1, SVG Export Plug-In . SVG Version: 6.00 Build 0)  -->
<svg version="1.1" id="Capa_1" xmlns="http://www.w3.org/2000/svg" xmlns:xlink="http://www.w3.org/1999/xlink" x="0px" y="0px"
	 viewBox="0 0 29.94 29.94" style="enable-background:new 0 0 29.94 29.94;" xml:space="preserve">
<g>
	<path d="M27.56,0.684H2.383C1.065,0.684,0,1.748,0,3.064v23.813c0,1.312,1.065,2.379,2.383,2.379H27.56
		c1.312,0,2.38-1.066,2.38-2.379V3.064C29.939,1.748,28.871,0.684,27.56,0.684z M20.125,9.167c-0.619-0.362-1.11-0.648-1.727-0.648
		c-0.604,0-1.12,0.151-1.384,0.405c-0.264,0.252-0.395,0.74-0.395,1.461v1.067h3.229l-0.699,2.968h-2.53v9.862h-4.056V14.42H10.67
		v-2.968h1.895v-1.133c0-1.193,0.143-1.907,0.425-2.496c0.281-0.587,0.826-1.241,1.584-1.611c0.757-0.369,1.877-0.555,3.036-0.555
		c1.188,0,2.116,0.396,3.254,0.715L20.125,9.167z"/>
	<g>
	</g>
	<g>
	</g>
	<g>
	</g>
	<g>
	</g>
	<g>
	</g>
	<g>
	</g>
	<g>
	</g>
	<g>
	</g>
	<g>
	</g>
	<g>
	</g>
	<g>
	</g>
	<g>
	</g>
	<g>
	</g>
	<g>
	</g>
	<g>
	</g>
</g>
<g>
</g>
<g>
</g>
<g>
</g>
<g>
</g>
<g>
</g>
<g>
</g>
<g>
</g>
<g>
</g>
<g>
</g>
<g>
</g>
<g>
</g>
<g>
</g>
<g>
</g>
<g>
</g>
<g>
</g>
</svg>
